src/com/lilithsthrone/res/items/raceWolfMorphMeatAndMarrow.svg

<?xml version="1.0" encoding="UTF-8" standalone="no"?>
<!-- Created with Inkscape (http://www.inkscape.org/) -->

<svg
   xmlns:dc="http://purl.org/dc/elements/1.1/"
   xmlns:cc="http://creativecommons.org/ns#"
   xmlns:rdf="http://www.w3.org/1999/02/22-rdf-syntax-ns#"
   xmlns:svg="http://www.w3.org/2000/svg"
   xmlns="http://www.w3.org/2000/svg"
   xmlns:sodipodi="http://sodipodi.sourceforge.net/DTD/sodipodi-0.dtd"
   xmlns:inkscape="http://www.inkscape.org/namespaces/inkscape"
   width="100%"
   height="100%"
   viewBox="0 0 64.000001 64.000001"
   id="svg4311"
   version="1.1"
   inkscape:version="0.91 r13725"
   sodipodi:docname="raceWolfMorphMeatAndMarrow.svg">
  <defs
     id="defs4313">
    <inkscape:path-effect
       effect="powerstroke"
       id="path-effect4155"
       is_visible="true"
       offset_points="0.92799346,1.2886104"
       sort_points="true"
       interpolator_type="Linear"
       interpolator_beta="0.2"
       start_linecap_type="zerowidth"
       linejoin_type="round"
       miter_limit="4"
       end_linecap_type="zerowidth"
       cusp_linecap_type="round" />
    <inkscape:path-effect
       effect="powerstroke"
       id="path-effect4151"
       is_visible="true"
       offset_points="0,0.5"
       sort_points="true"
       interpolator_type="CubicBezierJohan"
       interpolator_beta="0.2"
       start_linecap_type="zerowidth"
       linejoin_type="round"
       miter_limit="4"
       end_linecap_type="zerowidth"
       cusp_linecap_type="round" />
    <inkscape:path-effect
       effect="powerstroke"
       id="path-effect4147"
       is_visible="true"
       offset_points="0,0.5"
       sort_points="true"
       interpolator_type="CubicBezierJohan"
       interpolator_beta="0.2"
       start_linecap_type="zerowidth"
       linejoin_type="round"
       miter_limit="4"
       end_linecap_type="zerowidth"
       cusp_linecap_type="round" />
    <inkscape:path-effect
       effect="powerstroke"
       id="path-effect4183"
       is_visible="true"
       offset_points="0.238227,0.51804536"
       sort_points="true"
       interpolator_type="Linear"
       interpolator_beta="0.2"
       start_linecap_type="zerowidth"
       linejoin_type="round"
       miter_limit="4"
       end_linecap_type="zerowidth"
       cusp_linecap_type="round" />
  </defs>
  <sodipodi:namedview
     id="base"
     pagecolor="#ffffff"
     bordercolor="#666666"
     borderopacity="1.0"
     inkscape:pageopacity="0.0"
     inkscape:pageshadow="2"
     inkscape:zoom="11.2"
     inkscape:cx="37.775858"
     inkscape:cy="22.877837"
     inkscape:document-units="px"
     inkscape:current-layer="layer5"
     showgrid="false"
     units="px"
     inkscape:window-width="2560"
     inkscape:window-height="1388"
     inkscape:window-x="-8"
     inkscape:window-y="-8"
     inkscape:window-maximized="1"
     showguides="false" />
  <metadata
     id="metadata4316">
    <rdf:RDF>
      <cc:Work
         rdf:about="">
        <dc:format>image/svg+xml</dc:format>
        <dc:type
           rdf:resource="http://purl.org/dc/dcmitype/StillImage" />
        <dc:title />
      </cc:Work>
    </rdf:RDF>
  </metadata>
  <g
     inkscape:groupmode="layer"
     id="layer5"
     inkscape:label="Stage5"
     style="display:inline;opacity:1">
    <ellipse
       style="display:inline;fill:#ff8080;fill-opacity:1;stroke:#000000;stroke-width:1.12779903;stroke-linecap:round;stroke-linejoin:round;stroke-miterlimit:4;stroke-dasharray:none;stroke-dashoffset:0;stroke-opacity:1"
       id="path4279"
       cx="31.819803"
       cy="31.548853"
       rx="27.0075"
       ry="26.624949" />
    <path
       style="display:inline;opacity:1;fill:#ff5555;fill-rule:evenodd;stroke:none;stroke-width:1px;stroke-linecap:butt;stroke-linejoin:miter;stroke-opacity:1"
       d="m 13.309657,45.316003 c 1.127346,-5.38742 4.382031,-9.544684 5.578773,-14.158508 -3.449457,-1.74172 -4.30113,-3.896561 -4.235986,-4.317146 0.127196,-0.821188 3.932051,-1.888222 7.072538,-3.155618 3.808907,-1.537147 4.025501,-5.122497 9.107752,-5.076096 0.72948,0.0067 6.188566,-5.975526 9.492102,-9.2777822 1.386586,-1.3860481 3.1979,4.0701642 1.689851,8.0131932 l 1.515876,-0.901355 0.355716,-0.924844 0.695222,0.311206 1.068201,-0.289742 c 2.042132,1.568531 1.381352,4.500548 -0.424701,6.1071 -3.235545,2.878137 -4.093057,6.242961 -5.367906,9.613317 -1.715985,4.536601 0.282206,7.94485 -0.355864,12.105755 -0.531446,3.465621 -2.561412,5.086994 -1.87796,10.021168 -8.930521,0.590326 -18.002027,-0.32845 -24.313614,-8.070648 z"
       id="path4162"
       inkscape:connector-curvature="0"
       sodipodi:nodetypes="ccsssscccccssscc" />
    <g
       transform="matrix(0.88572464,0,0,0.80809688,9.8228707,10.574886)"
       style="display:inline;opacity:1"
       id="g4353-4"
       clip-path="none">
      <path
         style="fill:#cccccc;fill-rule:evenodd;stroke:#000000;stroke-width:0.5;stroke-linecap:butt;stroke-linejoin:miter;stroke-miterlimit:4;stroke-dasharray:none;stroke-opacity:1"
         d="M 11.587444,47.895208 C -8.3268913,34.823501 31.977779,-1.0024224 40.927579,8.6685335 49.164437,17.569101 35.012588,24.560488 33.259419,28.038895 28.692142,37.100685 30.558666,60.347856 11.587444,47.895208 Z"
         id="path4171-6"
         inkscape:connector-curvature="0"
         sodipodi:nodetypes="ssss" />
      <path
         sodipodi:nodetypes="ssss"
         inkscape:connector-curvature="0"
         id="path4156-9"
         d="M 10.911457,46.028637 C -9.0028794,32.95693 31.301792,-2.8689931 40.251592,6.8019628 48.48845,15.70253 34.336601,22.693917 32.583432,26.172324 28.016155,35.234114 29.882679,58.481285 10.911457,46.028637 Z"
         style="fill:#e3dedb;fill-rule:evenodd;stroke:#000000;stroke-width:0.5;stroke-linecap:butt;stroke-linejoin:miter;stroke-miterlimit:4;stroke-dasharray:none;stroke-opacity:1" />
      <path
         style="fill:#c83737;fill-rule:evenodd;stroke:#000000;stroke-width:0.5;stroke-linecap:butt;stroke-linejoin:miter;stroke-miterlimit:4;stroke-dasharray:none;stroke-opacity:1"
         d="M 12.908679,44.152714 C -3.3116726,33.505728 29.461074,2.487899 38.153192,8.7429834 45.083794,13.730434 31.419219,21.770753 29.991252,24.60394 26.271176,31.984823 28.360857,54.295474 12.908679,44.152714 Z"
         id="path4158-2"
         inkscape:connector-curvature="0"
         sodipodi:nodetypes="ssss" />
      <path
         sodipodi:nodetypes="ssss"
         inkscape:connector-curvature="0"
         id="path4160-9"
         d="m 17.471189,35.839418 c 0.77062,-6.224347 0.83882,-12.391132 10.45881,-19.340662 5.643559,-4.076937 -4.198579,6.5368 -5.940007,9.808351 -1.835775,3.448796 -5.42733,16.870538 -4.518803,9.532311 z"
         style="fill:#de8787;fill-opacity:1;fill-rule:evenodd;stroke:none;stroke-width:1px;stroke-linecap:butt;stroke-linejoin:miter;stroke-opacity:1" />
    </g>
    <flowRoot
       xml:space="preserve"
       id="flowRoot4156"
       style="fill:black;stroke:none;stroke-opacity:1;stroke-width:1px;stroke-linejoin:miter;stroke-linecap:butt;fill-opacity:1;font-family:sans-serif;font-style:normal;font-weight:normal;font-size:40px;line-height:125%;letter-spacing:0px;word-spacing:0px"><flowRegion
         id="flowRegion4158"><rect
           id="rect4160"
           width="42.678944"
           height="44.067905"
           x="6.5659914"
           y="11.21953" /></flowRegion><flowPara
         id="flowPara4162" /></flowRoot>    <flowRoot
       xml:space="preserve"
       id="flowRoot4168"
       style="fill:black;stroke:none;stroke-opacity:1;stroke-width:1px;stroke-linejoin:miter;stroke-linecap:butt;fill-opacity:1;font-family:sans-serif;font-style:normal;font-weight:normal;font-size:40px;line-height:125%;letter-spacing:0px;word-spacing:0px"><flowRegion
         id="flowRegion4170"><rect
           id="rect4172"
           width="63.765881"
           height="63.63961"
           x="0.25253814"
           y="-0.27095523" /></flowRegion><flowPara
         id="flowPara4174" /></flowRoot>   
    <path
       style="display:inline;fill:#f9f9f9;fill-opacity:1;fill-rule:evenodd;stroke:none;stroke-width:1px;stroke-linecap:butt;stroke-linejoin:miter;stroke-opacity:1"
       d="M 33.310526,8.4466623 C 42.853897,9.7059588 51.837481,12.667445 56.143804,29.852737 42.960254,11.013531 41.261755,14.341438 33.310526,8.4466623 Z"
       id="path4281"
       inkscape:connector-curvature="0"
       sodipodi:nodetypes="ccc" />
    <path
       style="display:inline;fill:#000000;fill-opacity:0.44859811;fill-rule:evenodd;stroke:none;stroke-width:1px;stroke-linecap:butt;stroke-linejoin:miter;stroke-opacity:1"
       d="M 43.352343,55.124348 C 18.554601,65.583105 -2.4191261,42.115746 7.6398162,20.86384 7.8289942,39.063247 21.867849,56.944615 43.352343,55.124348 Z"
       id="path4283"
       inkscape:connector-curvature="0"
       sodipodi:nodetypes="ccc" />
  </g>
</svg>

<svg xmlns="http://www.w3.org/2000/svg" viewBox="0 0 64 64">
    <ellipse cx="31.82" cy="31.549" fill="#ff8080" stroke="#000" stroke-linecap="round" stroke-linejoin="round" stroke-width="1.128" rx="27.008" ry="26.625"/>
    <path fill="#f55" fill-rule="evenodd" d="M13.31 45.316c1.127-5.387 4.382-9.545 5.578-14.159-3.449-1.741-4.3-3.896-4.236-4.317.128-.82 3.932-1.888 7.073-3.155 3.809-1.537 4.025-5.123 9.108-5.076.73.006 6.188-5.976 9.492-9.278 1.386-1.386 3.198 4.07 1.69 8.013l1.516-.901.355-.925.696.311 1.068-.29c2.042 1.569 1.381 4.5-.425 6.107-3.236 2.879-4.093 6.243-5.368 9.614-1.716 4.536.282 7.945-.356 12.105-.531 3.466-2.561 5.087-1.878 10.022-8.93.59-18.002-.329-24.313-8.071z"/>
    <g fill-rule="evenodd">
        <path fill="#ccc" stroke="#000" stroke-width=".5" d="M11.587 47.895C-8.327 34.824 31.977-1.002 40.927 8.67c8.237 8.9-5.914 15.891-7.668 19.37-4.567 9.062-2.7 32.309-21.672 19.856z" transform="matrix(.88572 0 0 .8081 9.823 10.575)"/>
        <path fill="#e3dedb" stroke="#000" stroke-width=".5" d="M10.911 46.029C-9.003 32.957 31.301-2.87 40.251 6.802c8.237 8.9-5.914 15.892-7.668 19.37-4.567 9.062-2.7 32.31-21.672 19.857z" transform="matrix(.88572 0 0 .8081 9.823 10.575)"/>
        <path fill="#c83737" stroke="#000" stroke-width=".5" d="M12.909 44.153C-3.311 33.506 29.46 2.488 38.153 8.743c6.93 4.987-6.734 13.028-8.162 15.86-3.72 7.382-1.63 29.692-17.082 19.55z" transform="matrix(.88572 0 0 .8081 9.823 10.575)"/>
        <path fill="#de8787" d="M25.298 39.537c.682-5.03.742-10.014 9.263-15.63 4.999-3.294-3.719 5.283-5.261 7.927-1.626 2.787-4.807 13.633-4.002 7.703z"/>
    </g>
    <path fill="#f9f9f9" fill-rule="evenodd" d="M33.31 8.447c9.544 1.259 18.527 4.22 22.834 21.406C42.96 11.013 41.262 14.34 33.31 8.447z"/>
    <path fill-opacity=".449" fill-rule="evenodd" d="M43.352 55.124C18.555 65.584-2.419 42.116 7.64 20.864c.189 18.2 14.228 36.08 35.712 34.26z"/>
</svg>
